Newaita-dark/apps/64/labplot.svg

<svg height="64" viewBox="0 0 64 64" width="64" xmlns="http://www.w3.org/2000/svg" xmlns:xlink="http://www.w3.org/1999/xlink"><linearGradient id="a" gradientUnits="userSpaceOnUse" x1="31.75304" x2="31.75304" y1="56.067872" y2="58.71396000006"><stop offset="0" stop-opacity=".27451"/><stop offset="1" stop-opacity="0"/></linearGradient><linearGradient id="b"><stop offset="0" stop-opacity=".313726"/><stop offset=".222222" stop-opacity=".27451"/><stop offset="1" stop-opacity="0"/></linearGradient><radialGradient id="c" cx="450.908936" cy="189.579361" gradientTransform="matrix(.00000035 -.156265 -.281277 -.0000002 106.24586 127.190665)" gradientUnits="userSpaceOnUse" r="21.166656" xlink:href="#b"/><radialGradient id="d" cx="450.908936" cy="189.579361" gradientTransform="matrix(-.00000035 .156265 .281277 .0000002 -42.409041 -15.054958)" gradientUnits="userSpaceOnUse" r="21.166656" xlink:href="#b"/><radialGradient id="e" cx="450.908936" cy="189.579361" gradientTransform="matrix(-.00000035 -.156265 .281277 -.0000002 -42.409041 127.190665)" gradientUnits="userSpaceOnUse" r="21.166656" xlink:href="#b"/><radialGradient id="f" cx="450.908936" cy="189.579361" gradientTransform="matrix(.00000035 .156265 -.281277 .0000002 106.245857 -15.054959)" gradientUnits="userSpaceOnUse" r="21.166656" xlink:href="#b"/><linearGradient id="g" gradientUnits="userSpaceOnUse" x1="31.753048" x2="31.753048" y1="56.067868" y2="5.79221000013"><stop offset="0" stop-color="#a1887f"/><stop offset="1" stop-color="#bcaaa4"/></linearGradient><linearGradient id="h" gradientTransform="matrix(.113106 0 0 .111853 3.024099 27.304142)" gradientUnits="userSpaceOnUse" x1="254" x2="254" y1="233.5" y2="-168.666656"><stop offset="0" stop-color="#424242"/><stop offset="1" stop-color="#616161"/></linearGradient><path d="m10.253906 56.066406h43.328125v2.648438h-43.328125zm0 0" fill="url(#a)"/><path d="m53.582031 56.066406h5.292969v-2.644531h-5.292969zm0 0" fill="url(#c)"/><path d="m10.253906 56.066406h-5.292968v2.648438h5.292968zm0 0" fill="url(#d)"/><path d="m10.253906 56.066406h-5.292968v-2.644531h5.292968zm0 0" fill="url(#e)"/><path d="m53.582031 56.066406h5.292969v2.648438h-5.292969zm0 0" fill="url(#f)"/><path d="m6.613281 5.792969h50.277344c1.460937 0 2.644531 1.183593 2.644531 2.644531v44.984375c0 1.460937-1.183594 2.644531-2.644531 2.644531h-50.277344c-1.460937 0-2.644531-1.183594-2.644531-2.644531v-44.984375c0-1.460938 1.183594-2.644531 2.644531-2.644531zm0 0" fill="url(#g)"/><path d="m6.613281 5.792969c-1.464843 0-2.644531 1.179687-2.644531 2.644531v.664062c0-1.46875 1.179688-2.648437 2.644531-2.648437h50.277344c1.464844 0 2.644531 1.179687 2.644531 2.648437v-.664062c0-1.464844-1.179687-2.644531-2.644531-2.644531zm0 0" fill="#fbfbfb" fill-opacity=".392157"/><path d="m6.613281 56.066406c-1.464843 0-2.644531-1.179687-2.644531-2.644531v-.660156c0 1.464843 1.179688 2.644531 2.644531 2.644531h50.277344c1.464844 0 2.644531-1.179688 2.644531-2.644531v.660156c0 1.464844-1.179687 2.644531-2.644531 2.644531zm0 0" fill-opacity=".235294"/><path d="m6.613281 5.605469c-1.566406 0-2.832031 1.265625-2.832031 2.832031v44.984375c0 1.566406 1.265625 2.832031 2.832031 2.832031h50.277344c1.566406 0 2.832031-1.265625 2.832031-2.832031v-44.984375c0-1.566406-1.265625-2.832031-2.832031-2.832031zm0 .375h50.277344c1.367187 0 2.457031 1.09375 2.457031 2.457031v44.984375c0 1.367187-1.089844 2.457031-2.457031 2.457031h-50.277344c-1.363281 0-2.457031-1.089844-2.457031-2.457031v-44.984375c0-1.363281 1.09375-2.457031 2.457031-2.457031zm0 0" fill="#212121"/><path d="m8.601562 8.4375h46.304688c1.097656 0 1.984375.890625 1.984375 1.984375v41.015625c0 1.097656-.886719 1.984375-1.984375 1.984375h-46.304688c-1.097656 0-1.988281-.886719-1.988281-1.984375v-41.015625c0-1.09375.890625-1.984375 1.988281-1.984375zm0 0" fill="url(#h)"/><path d="m6.613281 51.4375v.660156c0 1.101563.886719 1.984375 1.988281 1.984375h46.304688c1.097656 0 1.984375-.882812 1.984375-1.984375v-.660156c0 1.097656-.886719 1.984375-1.984375 1.984375h-46.304688c-1.101562 0-1.988281-.886719-1.988281-1.984375zm0 0" fill="#fff" fill-opacity=".392157"/><path d="m8.601562 8.4375c-1.101562 0-1.988281.886719-1.988281 1.984375v.992187c0-1.097656.886719-1.984374 1.988281-1.984374h46.304688c1.097656 0 1.984375.886718 1.984375 1.984374v-.992187c0-1.097656-.886719-1.984375-1.984375-1.984375zm0 0" fill-opacity=".235294"/><g fill="none" stroke-linecap="round" stroke-linejoin="round" transform="matrix(.125012 0 0 .125012 0 26.877566)"><path d="m68.805929-147.506445h370.402129c8.780411 0 15.873484 7.124319 15.873484 15.873484v328.093668c0 8.780412-7.093073 15.873485-15.873484 15.873485h-370.402129c-8.780411 0-15.904731-7.093073-15.904731-15.873485v-328.093668c0-8.749165 7.12432-15.873484 15.904731-15.873484zm0 0" stroke="#212121" stroke-width="3"/><path d="m428.615319 32.413873h-333.374414" stroke="#fff" stroke-opacity=".922581" stroke-width="7"/><path d="m428.615319 21.821135c-58.213191 0-108.489639-116.332641-162.734459-117.645016-54.213573-1.312374-107.146018 117.645016-170.639955 117.645016" stroke="#fff" stroke-opacity=".909677" stroke-width="7"/><path d="m428.615319 43.006612c-58.213191 0-108.489639 116.33264-162.734459 117.645015-54.213573 1.312375-107.146018-117.645015-170.639955-117.645015" stroke="#fff" stroke-opacity=".392157" stroke-width="7"/><path d="m428.615319 21.821135c-58.213191 0-109.11458-72.180607-163.3594-73.524229-54.24482-1.312375-106.521077 73.524229-170.015014 73.524229" stroke="#ffa726" stroke-width="7"/><path d="m95.240905-105.166739v275.161224" stroke="#fff" stroke-opacity=".922581" stroke-width="7.138627"/><path d="m264.568485 21.821135v21.185477" stroke="#fff" stroke-opacity=".922581" stroke-width="7.138627"/><path d="m179.920318 21.821135v21.185477" stroke="#fff" stroke-opacity=".922581" stroke-width="7.138627"/><path d="m343.967153 21.821135v21.185477" stroke="#fff" stroke-opacity=".922581" stroke-width="7.138627"/></g></svg>

<?xml version="1.0" encoding="UTF-8"?>
<svg xmlns="http://www.w3.org/2000/svg" xmlns:xlink="http://www.w3.org/1999/xlink" width="64px" height="64px" viewBox="0 0 64 64" version="1.1">
<defs>
<linearGradient id="linear0" gradientUnits="userSpaceOnUse" x1="254" y1="233.5" x2="254" y2="254.666672" gradientTransform="matrix(0.125012,0,0,0.125012,-0.00000763012,26.87757)">
<stop offset="0" style="stop-color:rgb(0%,0%,0%);stop-opacity:0.27451;"/>
<stop offset="1" style="stop-color:rgb(0%,0%,0%);stop-opacity:0;"/>
</linearGradient>
<radialGradient id="radial0" gradientUnits="userSpaceOnUse" cx="450.908936" cy="189.579361" fx="450.908936" fy="189.579361" r="21.166656" gradientTransform="matrix(0.000000348341,-0.156265,-0.281277,-0.000000203077,106.24586,127.190665)">
<stop offset="0" style="stop-color:rgb(0%,0%,0%);stop-opacity:0.313726;"/>
<stop offset="0.222222" style="stop-color:rgb(0%,0%,0%);stop-opacity:0.27451;"/>
<stop offset="1" style="stop-color:rgb(0%,0%,0%);stop-opacity:0;"/>
</radialGradient>
<radialGradient id="radial1" gradientUnits="userSpaceOnUse" cx="450.908936" cy="189.579361" fx="450.908936" fy="189.579361" r="21.166656" gradientTransform="matrix(-0.000000348341,0.156265,0.281277,0.000000203077,-42.409041,-15.054958)">
<stop offset="0" style="stop-color:rgb(0%,0%,0%);stop-opacity:0.313726;"/>
<stop offset="0.222222" style="stop-color:rgb(0%,0%,0%);stop-opacity:0.27451;"/>
<stop offset="1" style="stop-color:rgb(0%,0%,0%);stop-opacity:0;"/>
</radialGradient>
<radialGradient id="radial2" gradientUnits="userSpaceOnUse" cx="450.908936" cy="189.579361" fx="450.908936" fy="189.579361" r="21.166656" gradientTransform="matrix(-0.000000348341,-0.156265,0.281277,-0.000000203077,-42.409041,127.190665)">
<stop offset="0" style="stop-color:rgb(0%,0%,0%);stop-opacity:0.313726;"/>
<stop offset="0.222222" style="stop-color:rgb(0%,0%,0%);stop-opacity:0.27451;"/>
<stop offset="1" style="stop-color:rgb(0%,0%,0%);stop-opacity:0;"/>
</radialGradient>
<radialGradient id="radial3" gradientUnits="userSpaceOnUse" cx="450.908936" cy="189.579361" fx="450.908936" fy="189.579361" r="21.166656" gradientTransform="matrix(0.000000348341,0.156265,-0.281277,0.000000203077,106.245857,-15.054959)">
<stop offset="0" style="stop-color:rgb(0%,0%,0%);stop-opacity:0.313726;"/>
<stop offset="0.222222" style="stop-color:rgb(0%,0%,0%);stop-opacity:0.27451;"/>
<stop offset="1" style="stop-color:rgb(0%,0%,0%);stop-opacity:0;"/>
</radialGradient>
<linearGradient id="linear1" gradientUnits="userSpaceOnUse" x1="254" y1="233.5" x2="254" y2="-168.666656" gradientTransform="matrix(0.125012,0,0,0.125012,0,26.877566)">
<stop offset="0" style="stop-color:rgb(63.137257%,53.333336%,49.803922%);stop-opacity:1;"/>
<stop offset="1" style="stop-color:rgb(73.725492%,66.666669%,64.313728%);stop-opacity:1;"/>
</linearGradient>
<linearGradient id="linear2" gradientUnits="userSpaceOnUse" x1="254" y1="233.5" x2="254" y2="-168.666656" gradientTransform="matrix(0.113106,0,0,0.111853,3.024099,27.304142)">
<stop offset="0" style="stop-color:rgb(25.882354%,25.882354%,25.882354%);stop-opacity:1;"/>
<stop offset="1" style="stop-color:rgb(38.039216%,38.039216%,38.039216%);stop-opacity:1;"/>
</linearGradient>
</defs>
<g id="surface1">
<path style=" stroke:none;fill-rule:nonzero;fill:url(#linear0);" d="M 10.253906 56.066406 L 53.582031 56.066406 L 53.582031 58.714844 L 10.253906 58.714844 Z M 10.253906 56.066406 "/>
<path style=" stroke:none;fill-rule:nonzero;fill:url(#radial0);" d="M 53.582031 56.066406 L 58.875 56.066406 L 58.875 53.421875 L 53.582031 53.421875 Z M 53.582031 56.066406 "/>
<path style=" stroke:none;fill-rule:nonzero;fill:url(#radial1);" d="M 10.253906 56.066406 L 4.960938 56.066406 L 4.960938 58.714844 L 10.253906 58.714844 Z M 10.253906 56.066406 "/>
<path style=" stroke:none;fill-rule:nonzero;fill:url(#radial2);" d="M 10.253906 56.066406 L 4.960938 56.066406 L 4.960938 53.421875 L 10.253906 53.421875 Z M 10.253906 56.066406 "/>
<path style=" stroke:none;fill-rule:nonzero;fill:url(#radial3);" d="M 53.582031 56.066406 L 58.875 56.066406 L 58.875 58.714844 L 53.582031 58.714844 Z M 53.582031 56.066406 "/>
<path style=" stroke:none;fill-rule:nonzero;fill:url(#linear1);" d="M 6.613281 5.792969 L 56.890625 5.792969 C 58.351562 5.792969 59.535156 6.976562 59.535156 8.4375 L 59.535156 53.421875 C 59.535156 54.882812 58.351562 56.066406 56.890625 56.066406 L 6.613281 56.066406 C 5.152344 56.066406 3.96875 54.882812 3.96875 53.421875 L 3.96875 8.4375 C 3.96875 6.976562 5.152344 5.792969 6.613281 5.792969 Z M 6.613281 5.792969 "/>
<path style=" stroke:none;fill-rule:nonzero;fill:rgb(98.431373%,98.431373%,98.431373%);fill-opacity:0.392157;" d="M 6.613281 5.792969 C 5.148438 5.792969 3.96875 6.972656 3.96875 8.4375 L 3.96875 9.101562 C 3.96875 7.632812 5.148438 6.453125 6.613281 6.453125 L 56.890625 6.453125 C 58.355469 6.453125 59.535156 7.632812 59.535156 9.101562 L 59.535156 8.4375 C 59.535156 6.972656 58.355469 5.792969 56.890625 5.792969 Z M 6.613281 5.792969 "/>
<path style=" stroke:none;fill-rule:nonzero;fill:rgb(0%,0%,0%);fill-opacity:0.235294;" d="M 6.613281 56.066406 C 5.148438 56.066406 3.96875 54.886719 3.96875 53.421875 L 3.96875 52.761719 C 3.96875 54.226562 5.148438 55.40625 6.613281 55.40625 L 56.890625 55.40625 C 58.355469 55.40625 59.535156 54.226562 59.535156 52.761719 L 59.535156 53.421875 C 59.535156 54.886719 58.355469 56.066406 56.890625 56.066406 Z M 6.613281 56.066406 "/>
<path style=" stroke:none;fill-rule:nonzero;fill:rgb(12.941177%,12.941177%,12.941177%);fill-opacity:1;" d="M 6.613281 5.605469 C 5.046875 5.605469 3.78125 6.871094 3.78125 8.4375 L 3.78125 53.421875 C 3.78125 54.988281 5.046875 56.253906 6.613281 56.253906 L 56.890625 56.253906 C 58.457031 56.253906 59.722656 54.988281 59.722656 53.421875 L 59.722656 8.4375 C 59.722656 6.871094 58.457031 5.605469 56.890625 5.605469 Z M 6.613281 5.980469 L 56.890625 5.980469 C 58.257812 5.980469 59.347656 7.074219 59.347656 8.4375 L 59.347656 53.421875 C 59.347656 54.789062 58.257812 55.878906 56.890625 55.878906 L 6.613281 55.878906 C 5.25 55.878906 4.15625 54.789062 4.15625 53.421875 L 4.15625 8.4375 C 4.15625 7.074219 5.25 5.980469 6.613281 5.980469 Z M 6.613281 5.980469 "/>
<path style=" stroke:none;fill-rule:nonzero;fill:url(#linear2);" d="M 8.601562 8.4375 L 54.90625 8.4375 C 56.003906 8.4375 56.890625 9.328125 56.890625 10.421875 L 56.890625 51.4375 C 56.890625 52.535156 56.003906 53.421875 54.90625 53.421875 L 8.601562 53.421875 C 7.503906 53.421875 6.613281 52.535156 6.613281 51.4375 L 6.613281 10.421875 C 6.613281 9.328125 7.503906 8.4375 8.601562 8.4375 Z M 8.601562 8.4375 "/>
<path style=" stroke:none;fill-rule:nonzero;fill:rgb(100%,100%,100%);fill-opacity:0.392157;" d="M 6.613281 51.4375 L 6.613281 52.097656 C 6.613281 53.199219 7.5 54.082031 8.601562 54.082031 L 54.90625 54.082031 C 56.003906 54.082031 56.890625 53.199219 56.890625 52.097656 L 56.890625 51.4375 C 56.890625 52.535156 56.003906 53.421875 54.90625 53.421875 L 8.601562 53.421875 C 7.5 53.421875 6.613281 52.535156 6.613281 51.4375 Z M 6.613281 51.4375 "/>
<path style=" stroke:none;fill-rule:nonzero;fill:rgb(0%,0%,0%);fill-opacity:0.235294;" d="M 8.601562 8.4375 C 7.5 8.4375 6.613281 9.324219 6.613281 10.421875 L 6.613281 11.414062 C 6.613281 10.316406 7.5 9.429688 8.601562 9.429688 L 54.90625 9.429688 C 56.003906 9.429688 56.890625 10.316406 56.890625 11.414062 L 56.890625 10.421875 C 56.890625 9.324219 56.003906 8.4375 54.90625 8.4375 Z M 8.601562 8.4375 "/>
<path style="fill:none;stroke-width:3;stroke-linecap:round;stroke-linejoin:round;stroke:rgb(12.941177%,12.941177%,12.941177%);stroke-opacity:1;stroke-miterlimit:4;" d="M 68.805929 -147.506445 L 439.208058 -147.506445 C 447.988469 -147.506445 455.081542 -140.382126 455.081542 -131.632961 L 455.081542 196.460707 C 455.081542 205.241119 447.988469 212.334192 439.208058 212.334192 L 68.805929 212.334192 C 60.025518 212.334192 52.901198 205.241119 52.901198 196.460707 L 52.901198 -131.632961 C 52.901198 -140.382126 60.025518 -147.506445 68.805929 -147.506445 Z M 68.805929 -147.506445 " transform="matrix(0.125012,0,0,0.125012,0,26.877566)"/>
<path style="fill:none;stroke-width:7;stroke-linecap:round;stroke-linejoin:round;stroke:rgb(100%,100%,100%);stroke-opacity:0.922581;stroke-miterlimit:4;" d="M 428.615319 32.413873 L 95.240905 32.413873 " transform="matrix(0.125012,0,0,0.125012,0,26.877566)"/>
<path style="fill:none;stroke-width:7;stroke-linecap:round;stroke-linejoin:round;stroke:rgb(100%,100%,100%);stroke-opacity:0.909677;stroke-miterlimit:4;" d="M 428.615319 21.821135 C 370.402128 21.821135 320.12568 -94.511506 265.88086 -95.823881 C 211.667287 -97.136255 158.734842 21.821135 95.240905 21.821135 " transform="matrix(0.125012,0,0,0.125012,0,26.877566)"/>
<path style="fill:none;stroke-width:7;stroke-linecap:round;stroke-linejoin:round;stroke:rgb(100%,100%,100%);stroke-opacity:0.392157;stroke-miterlimit:4;" d="M 428.615319 43.006612 C 370.402128 43.006612 320.12568 159.339252 265.88086 160.651627 C 211.667287 161.964002 158.734842 43.006612 95.240905 43.006612 " transform="matrix(0.125012,0,0,0.125012,0,26.877566)"/>
<path style="fill:none;stroke-width:7;stroke-linecap:round;stroke-linejoin:round;stroke:rgb(100%,65.490198%,14.901961%);stroke-opacity:1;stroke-miterlimit:4;" d="M 428.615319 21.821135 C 370.402128 21.821135 319.500739 -50.359472 265.255919 -51.703094 C 211.011099 -53.015469 158.734842 21.821135 95.240905 21.821135 " transform="matrix(0.125012,0,0,0.125012,0,26.877566)"/>
<path style="fill:none;stroke-width:7.138627;stroke-linecap:round;stroke-linejoin:round;stroke:rgb(100%,100%,100%);stroke-opacity:0.922581;stroke-miterlimit:4;" d="M 95.240905 -105.166739 L 95.240905 169.994485 " transform="matrix(0.125012,0,0,0.125012,0,26.877566)"/>
<path style="fill:none;stroke-width:7.138627;stroke-linecap:round;stroke-linejoin:round;stroke:rgb(100%,100%,100%);stroke-opacity:0.922581;stroke-miterlimit:4;" d="M 264.568485 21.821135 L 264.568485 43.006612 " transform="matrix(0.125012,0,0,0.125012,0,26.877566)"/>
<path style="fill:none;stroke-width:7.138627;stroke-linecap:round;stroke-linejoin:round;stroke:rgb(100%,100%,100%);stroke-opacity:0.922581;stroke-miterlimit:4;" d="M 179.920318 21.821135 L 179.920318 43.006612 " transform="matrix(0.125012,0,0,0.125012,0,26.877566)"/>
<path style="fill:none;stroke-width:7.138627;stroke-linecap:round;stroke-linejoin:round;stroke:rgb(100%,100%,100%);stroke-opacity:0.922581;stroke-miterlimit:4;" d="M 343.967153 21.821135 L 343.967153 43.006612 " transform="matrix(0.125012,0,0,0.125012,0,26.877566)"/>
</g>
</svg>
